images/gnosis.svg

<svg height="250" viewBox="0 0 250 250" width="250" xmlns="http://www.w3.org/2000/svg"><path d="m42.691406 211.425781v25.460938c-4.277344 5.328125-10.597656 8.980469-16.375 8.980469-12.460937 0-22.152344-15.296876-22.152344-35.03125 0-19.734376 9.8125-34.835938 22.574219-34.835938 6.019531 0 12.039063 3.75 16.195313 9.671875l-4.035156 8.582031c-3.25-4.929687-7.765626-7.890625-12.160157-7.890625-8.609375 0-15.351562 10.753907-15.351562 24.472657 0 13.8125 6.800781 24.574218 15.410156 24.574218 3.132813 0 6.683594-1.777344 9.695313-4.738281v-19.246094zm42.320313 33.953125-22.457031-49.542968v49.542968h-7.097657v-69.085937h6.980469l22.574219 49.640625v-49.640625h6.984375v69.085937zm62.007812-34.542968c0 19.734374-9.75 35.03125-22.335937 35.03125-12.582032 0-22.332032-15.296876-22.332032-35.03125 0-19.835938 9.75-34.835938 22.332032-34.835938 12.585937 0 22.335937 15.101562 22.335937 34.835938zm-37.445312 0c0 13.71875 6.921875 24.574218 15.171875 24.574218 8.246094 0 14.988281-10.855468 14.988281-24.574218s-6.742187-24.375-14.988281-24.375c-8.308594 0-15.171875 10.65625-15.171875 24.375zm76.339843-27.925782-2.953124 10.261719c-4.574219-4.542969-9.152344-6.417969-12.339844-6.417969-4.15625 0-6.863282 2.570313-6.863282 7.207032 0 15.097656 22.753907 7.007812 22.695313 31.875 0 12.335937-6.621094 19.933593-15.890625 19.933593-6.625 0-12.882812-4.4375-17.21875-10.953125l3.066406-10.066406c4.335938 6.515625 9.757813 10.066406 14.269532 10.066406 4.9375 0 7.890624-3.058594 7.890624-8.390625 0-15.394531-22.761718-6.804687-22.761718-31.378906 0-11.839844 6.203125-19.242187 15.355468-19.242187 5.476563 0 10.835938 2.859374 14.75 7.105468zm11.558594 62.46875v-69.085937h7.101563v69.085937zm49.480469-62.46875-2.953125 10.261719c-4.570312-4.542969-9.144531-6.417969-12.335938-6.417969-4.15625 0-6.859374 2.570313-6.859374 7.207032 0 15.097656 22.753906 7.007812 22.691406 31.875 0 12.335937-6.621094 19.933593-15.894532 19.933593-6.621093 0-12.878906-4.4375-17.214843-10.953125l3.070312-10.066406c4.332031 6.515625 9.753907 10.066406 14.265625 10.066406 4.9375 0 7.890625-3.058594 7.890625-8.390625 0-15.394531-22.757812-6.804687-22.757812-31.378906 0-11.839844 6.199219-19.242187 15.351562-19.242187 5.476563 0 10.835938 2.859374 14.746094 7.105468zm-87.367187-146.410156-3.003907 4.925781c2.417969 6.148438 3.128907 14.007813 1.503907 21.425781-2.773438 12.664063-11.285157 19.253907-19.007813 14.707032-1.089844-.636719-2.109375-1.46875-3.042969-2.453125l-9.675781 15.859375-8.523437-13.96875c-3.890626 4.269531-8.917969 5.574218-13.664063 2.78125-7.949219-4.671875-12.078125-19.015625-9.230469-32.035156.4375-1.988282 1.011719-3.820313 1.695313-5.5l-3.628907-5.949219-.703124 1.878906c-3.808594 10.1875-5.828126 21.894531-5.84375 33.863281-.039063 35.964844 17.773437 65.277344 39.714843 65.347656h.074219c21.898438 0 39.746094-29.207031 39.789062-65.097656.011719-11.96875-1.980468-23.691406-5.753906-33.902344zm-58.453126 13.117188c-1.050781 2.230468-1.679687 5.023437-1.679687 8.058593 0 7.3125 3.613281 13.234375 8.074219 13.234375 1.851562 0 3.554687-1.035156 4.917968-2.753906zm39.800782 17.453124c1.292968 1.429688 2.84375 2.261719 4.519531 2.261719 4.457031 0 8.074219-5.925781 8.074219-13.238281 0-2.742188-.511719-5.289062-1.382813-7.402344zm-14.511719 14.003907-32.835937-54.027344 1.277343-2.230469c8.167969-14.21875 19.214844-22.046875 31.109375-22.046875h.082032c12.019531.035157 23.535156 8.4375 31.605468 23.050781l1.234375 2.230469zm-27.441406-54.101563 27.453125 45.167969 27.109375-44.261719c-7.257813-11.945312-17.171875-18.761718-27.496094-18.792968h-.074219c-10.195312 0-19.707031 6.324218-26.992187 17.886718zm-8.761719 88.886719-3.867188-.417969c-16.34375-1.738281-38.890624-8.339844-53.480468-29.882812-8.9375-13.195313-10.648438-25.738282-10.714844-26.269532l-.496094-3.796874h59.484375l-.296875 3.566406c-.269531 3.292968-.410156 6.625-.414062 9.894531-.015625 14.867187 2.625 29.253906 7.636718 41.617187zm72.050781 0 2.144531-5.289063c4.988282-12.285156 7.632813-26.574218 7.652344-41.328124 0-3.394532-.136718-6.816407-.410156-10.183594l-.292969-3.5625h59.472657l-.492188 3.792968c-.066406.53125-1.78125 13.074219-10.71875 26.269532-14.589844 21.542968-37.140625 28.144531-53.488281 29.886718zm0 0" fill="#00a6c4"/></svg>

<!-- Generator: Adobe Illustrator 16.0.0, SVG Export Plug-In . SVG Version: 6.00 Build 0)  -->
<svg xmlns="http://www.w3.org/2000/svg" xmlns:xlink="http://www.w3.org/1999/xlink" width="250px" height="250px" viewBox="0 0 250 250" version="1.1">
<g id="surface1">
<path style=" stroke:none;fill-rule:nonzero;fill:rgb(0%,65.098041%,76.862746%);fill-opacity:1;" d="M 42.691406 211.425781 L 42.691406 236.886719 C 38.414062 242.214844 32.09375 245.867188 26.316406 245.867188 C 13.855469 245.867188 4.164062 230.570312 4.164062 210.835938 C 4.164062 191.101562 13.976562 176 26.738281 176 C 32.757812 176 38.777344 179.75 42.933594 185.671875 L 38.898438 194.253906 C 35.648438 189.324219 31.132812 186.363281 26.738281 186.363281 C 18.128906 186.363281 11.386719 197.117188 11.386719 210.835938 C 11.386719 224.648438 18.1875 235.410156 26.796875 235.410156 C 29.929688 235.410156 33.480469 233.632812 36.492188 230.671875 L 36.492188 211.425781 Z M 85.011719 245.378906 L 62.554688 195.835938 L 62.554688 245.378906 L 55.457031 245.378906 L 55.457031 176.292969 L 62.4375 176.292969 L 85.011719 225.933594 L 85.011719 176.292969 L 91.996094 176.292969 L 91.996094 245.378906 Z M 147.019531 210.835938 C 147.019531 230.570312 137.269531 245.867188 124.683594 245.867188 C 112.101562 245.867188 102.351562 230.570312 102.351562 210.835938 C 102.351562 191 112.101562 176 124.683594 176 C 137.269531 176 147.019531 191.101562 147.019531 210.835938 Z M 109.574219 210.835938 C 109.574219 224.554688 116.496094 235.410156 124.746094 235.410156 C 132.992188 235.410156 139.734375 224.554688 139.734375 210.835938 C 139.734375 197.117188 132.992188 186.460938 124.746094 186.460938 C 116.4375 186.460938 109.574219 197.117188 109.574219 210.835938 Z M 185.914062 182.910156 L 182.960938 193.171875 C 178.386719 188.628906 173.808594 186.753906 170.621094 186.753906 C 166.464844 186.753906 163.757812 189.324219 163.757812 193.960938 C 163.757812 209.058594 186.511719 200.96875 186.453125 225.835938 C 186.453125 238.171875 179.832031 245.769531 170.5625 245.769531 C 163.9375 245.769531 157.679688 241.332031 153.34375 234.816406 L 156.410156 224.75 C 160.746094 231.265625 166.167969 234.816406 170.679688 234.816406 C 175.617188 234.816406 178.570312 231.757812 178.570312 226.425781 C 178.570312 211.03125 155.808594 219.621094 155.808594 195.046875 C 155.808594 183.207031 162.011719 175.804688 171.164062 175.804688 C 176.640625 175.804688 182 178.664062 185.914062 182.910156 Z M 197.472656 245.378906 L 197.472656 176.292969 L 204.574219 176.292969 L 204.574219 245.378906 Z M 246.953125 182.910156 L 244 193.171875 C 239.429688 188.628906 234.855469 186.753906 231.664062 186.753906 C 227.507812 186.753906 224.804688 189.324219 224.804688 193.960938 C 224.804688 209.058594 247.558594 200.96875 247.496094 225.835938 C 247.496094 238.171875 240.875 245.769531 231.601562 245.769531 C 224.980469 245.769531 218.722656 241.332031 214.386719 234.816406 L 217.457031 224.75 C 221.789062 231.265625 227.210938 234.816406 231.722656 234.816406 C 236.660156 234.816406 239.613281 231.757812 239.613281 226.425781 C 239.613281 211.03125 216.855469 219.621094 216.855469 195.046875 C 216.855469 183.207031 223.054688 175.804688 232.207031 175.804688 C 237.683594 175.804688 243.042969 178.664062 246.953125 182.910156 Z M 159.585938 36.5 L 156.582031 41.425781 C 159 47.574219 159.710938 55.433594 158.085938 62.851562 C 155.3125 75.515625 146.800781 82.105469 139.078125 77.558594 C 137.988281 76.921875 136.96875 76.089844 136.035156 75.105469 L 126.359375 90.964844 L 117.835938 76.996094 C 113.945312 81.265625 108.917969 82.570312 104.171875 79.777344 C 96.222656 75.105469 92.09375 60.761719 94.941406 47.742188 C 95.378906 45.753906 95.953125 43.921875 96.636719 42.242188 L 93.007812 36.292969 L 92.304688 38.171875 C 88.496094 48.359375 86.476562 60.066406 86.460938 72.035156 C 86.421875 108 104.234375 137.3125 126.175781 137.382812 L 126.25 137.382812 C 148.148438 137.382812 165.996094 108.175781 166.039062 72.285156 C 166.050781 60.316406 164.058594 48.59375 160.285156 38.382812 Z M 101.132812 49.617188 C 100.082031 51.847656 99.453125 54.640625 99.453125 57.675781 C 99.453125 64.988281 103.066406 70.910156 107.527344 70.910156 C 109.378906 70.910156 111.082031 69.875 112.445312 68.15625 Z M 140.933594 67.070312 C 142.226562 68.5 143.777344 69.332031 145.453125 69.332031 C 149.910156 69.332031 153.527344 63.40625 153.527344 56.09375 C 153.527344 53.351562 153.015625 50.804688 152.144531 48.691406 Z M 126.421875 81.074219 L 93.585938 27.046875 L 94.863281 24.816406 C 103.03125 10.597656 114.078125 2.769531 125.972656 2.769531 L 126.054688 2.769531 C 138.074219 2.804688 149.589844 11.207031 157.660156 25.820312 L 158.894531 28.050781 Z M 98.980469 26.972656 L 126.433594 72.140625 L 153.542969 27.878906 C 146.285156 15.933594 136.371094 9.117188 126.046875 9.085938 L 125.972656 9.085938 C 115.777344 9.085938 106.265625 15.410156 98.980469 26.972656 Z M 90.21875 115.859375 L 86.351562 115.441406 C 70.007812 113.703125 47.460938 107.101562 32.871094 85.558594 C 23.933594 72.363281 22.222656 59.820312 22.15625 59.289062 L 21.660156 55.492188 L 81.144531 55.492188 L 80.847656 59.058594 C 80.578125 62.351562 80.4375 65.683594 80.433594 68.953125 C 80.417969 83.820312 83.058594 98.207031 88.070312 110.570312 Z M 162.269531 115.859375 L 164.414062 110.570312 C 169.402344 98.285156 172.046875 83.996094 172.066406 69.242188 C 172.066406 65.847656 171.929688 62.425781 171.65625 59.058594 L 171.363281 55.496094 L 230.835938 55.496094 L 230.34375 59.289062 C 230.277344 59.820312 228.5625 72.363281 219.625 85.558594 C 205.035156 107.101562 182.484375 113.703125 166.136719 115.445312 Z M 162.269531 115.859375 "/>
</g>
</svg>
